src/Icon/svgs/edit.svg

<svg width="24" height="24" viewBox="0 0 24 24" fill="none" xmlns="http://www.w3.org/2000/svg">
<path fill-rule="evenodd" clip-rule="evenodd" d="M4 21.0001C3.44772 21.0001 3 20.5523 3 20.0001V16.0001C3 15.7348 3.10536 15.4805 3.29289 15.293L14.2929 4.29295C15.788 2.79786 18.212 2.79786 19.7071 4.29295C21.2022 5.78804 21.2022 8.21207 19.7071 9.70716L8.70711 20.7072C8.51957 20.8947 8.26522 21.0001 8 21.0001H4ZM5 19.0001H7.58579L8.29289 18.293L5.70711 15.7072L5 16.4143V19.0001Z" fill="#1B1C1D"/>
</svg>

<svg xmlns="http://www.w3.org/2000/svg" width="24" height="24" fill="none"  xmlns:v="https://vecta.io/nano"><path fill-rule="evenodd" d="M4 21a1 1 0 0 1-1-1v-4a1 1 0 0 1 .293-.707l11-11a3.83 3.83 0 0 1 5.414 0 3.83 3.83 0 0 1 0 5.414l-11 11A1 1 0 0 1 8 21H4zm1-2h2.586l.707-.707-2.586-2.586-.707.707V19z" fill="#1b1c1d"/></svg>
